frontend/public/svg/interface/analytics.svg

<svg width="170" height="99" viewBox="0 0 170 99" fill="none" xmlns="http://www.w3.org/2000/svg">
<g clip-path="url(#clip0)">
<path d="M159.524 0.393145C156.399 0.123788 154.058 0.750571 152.37 2.30179C150.171 4.32164 149.108 7.85474 149.031 13.4077C147.212 15.4816 145.399 17.5445 143.593 19.5965C139.42 24.3401 135.106 29.2446 130.918 34.0834C126.73 38.9222 122.505 43.8811 118.419 48.6762C116.665 50.7333 114.91 52.7923 113.152 54.8533C112.677 54.843 112.182 54.8083 111.663 54.7723C110.128 54.5701 108.57 54.6493 107.064 55.0063C105.06 55.6145 103.869 55.0462 102.107 53.6307C92.4085 45.8476 83.3948 39.8002 74.55 35.1446C73.8555 34.8254 73.2439 34.3489 72.7624 33.752C72.2816 33.1552 71.9436 32.4542 71.7758 31.704C71.0743 29.0054 69.3499 26.6922 66.9731 25.2626C64.5969 23.833 61.7583 23.4013 59.0692 24.0605C56.3348 24.7041 53.9423 26.364 52.3692 28.7085C50.7961 31.0531 50.1584 33.9097 50.5836 36.7075C50.6933 37.4468 50.826 38.1861 50.9536 38.89L51.056 39.4685L15.5387 73.8969C15.3582 73.8795 15.1783 73.8596 14.9991 73.8409C14.4072 73.7767 13.7946 73.7124 13.1805 73.6963C7.30631 73.5259 3.69542 76.116 1.80964 81.8503C0.395138 86.151 1.94355 89.9895 3.23178 92.5031C4.10457 94.3089 5.43379 95.8517 7.0859 96.9748C8.73803 98.0985 10.6546 98.7639 12.6428 98.9034C12.843 98.9143 13.0427 98.9195 13.2422 98.9201C15.156 98.8912 17.0327 98.382 18.7028 97.4396C20.3728 96.4965 21.7836 95.1497 22.8082 93.5201C25.8693 88.8825 26.3451 84.5362 24.2534 80.2489L58.7173 47.1571L68.318 44.1679L96.7993 63.863C97.0238 68.0989 98.0703 71.2753 100.173 74.1232C101.397 75.8724 103.174 77.1517 105.213 77.7521C107.252 78.3519 109.432 78.2368 111.398 77.4262C117.081 75.2495 120.237 70.4261 120.088 64.1697L154.653 20.8963C159.556 21.8606 163.362 21.4107 165.969 19.5528C167.985 18.1186 169.212 15.895 169.615 12.9436C169.846 11.4554 169.772 9.93496 169.397 8.4767C169.022 7.01851 168.354 5.65349 167.434 4.46625C166.462 3.27794 165.259 2.30335 163.898 1.60274C162.538 0.902131 161.049 0.490445 159.524 0.393145Z" fill="black"/>
</g>
<defs>
<clipPath id="clip0">
<rect width="169" height="99" fill="white" transform="translate(0.777344)"/>
</clipPath>
</defs>
</svg>

<svg xmlns="http://www.w3.org/2000/svg" width="170" height="99" fill="none" viewBox="0 0 170 99"><g clip-path="url(#a)"><path fill="#000" d="M159.524.393c-3.125-.27-5.466.358-7.154 1.909-2.199 2.02-3.262 5.553-3.339 11.106a4824 4824 0 0 1-5.438 6.188 2403 2403 0 0 0-12.675 14.487c-4.188 4.84-8.413 9.798-12.499 14.593l-5.267 6.177c-.475-.01-.97-.045-1.489-.08a12.7 12.7 0 0 0-4.599.233c-2.004.608-3.195.04-4.957-1.375-9.698-7.783-18.712-13.83-27.557-18.486a4.96 4.96 0 0 1-1.788-1.393 5 5 0 0 1-.986-2.048 10.63 10.63 0 0 0-4.803-6.441 10.48 10.48 0 0 0-7.904-1.203 11.15 11.15 0 0 0-6.7 4.649 11.3 11.3 0 0 0-1.785 7.999c.11.739.242 1.478.37 2.182l.102.578-35.517 34.429-.54-.056a22 22 0 0 0-1.819-.145c-5.874-.17-9.485 2.42-11.37 8.154-1.415 4.301.134 8.14 1.422 10.653a11.4 11.4 0 0 0 3.854 4.472 11.3 11.3 0 0 0 5.557 1.928q.3.016.6.017a11.46 11.46 0 0 0 5.46-1.48c1.67-.944 3.08-2.29 4.105-3.92 3.061-4.638 3.537-8.984 1.445-13.271l34.464-33.092 9.601-2.99 28.481 19.696c.225 4.236 1.271 7.412 3.374 10.26a9.4 9.4 0 0 0 5.04 3.63 9.32 9.32 0 0 0 6.185-.327c5.683-2.177 8.839-7 8.69-13.256l34.565-43.274c4.903.965 8.709.515 11.316-1.343 2.016-1.434 3.243-3.658 3.646-6.61a11.1 11.1 0 0 0-.218-4.466 11 11 0 0 0-1.963-4.01 11.2 11.2 0 0 0-3.536-2.864 11.1 11.1 0 0 0-4.374-1.21"/></g><defs><clipPath id="a"><path fill="#fff" d="M.777 0h169v99h-169z"/></clipPath></defs></svg>
